dist/assets/img/header/logo.svg

<svg width="143" height="27" viewBox="0 0 143 27" fill="none" xmlns="http://www.w3.org/2000/svg">
<path d="M4.038 3.266V11.924H14.406V15.038H4.038V26H0.186V0.151998H16.206V3.266H4.038ZM27.1182 17.882C25.6902 17.93 24.4782 18.044 23.4822 18.224C22.4862 18.392 21.6762 18.62 21.0522 18.908C20.4282 19.196 19.9782 19.538 19.7022 19.934C19.4262 20.318 19.2882 20.75 19.2882 21.23C19.2882 21.686 19.3602 22.082 19.5042 22.418C19.6602 22.742 19.8642 23.012 20.1162 23.228C20.3802 23.432 20.6862 23.582 21.0342 23.678C21.3822 23.774 21.7602 23.822 22.1682 23.822C22.7082 23.822 23.2002 23.768 23.6442 23.66C24.1002 23.552 24.5262 23.402 24.9222 23.21C25.3182 23.006 25.6962 22.76 26.0562 22.472C26.4162 22.184 26.7702 21.854 27.1182 21.482V17.882ZM16.8222 10.268C17.8422 9.296 18.9462 8.57 20.1342 8.09C21.3342 7.61 22.6482 7.37 24.0762 7.37C25.1202 7.37 26.0442 7.544 26.8482 7.892C27.6522 8.228 28.3302 8.702 28.8822 9.314C29.4342 9.926 29.8482 10.658 30.1242 11.51C30.4122 12.362 30.5562 13.304 30.5562 14.336V26H28.9902C28.6422 26 28.3782 25.946 28.1982 25.838C28.0182 25.718 27.8742 25.502 27.7662 25.19L27.3882 23.588C26.9202 24.02 26.4582 24.404 26.0022 24.74C25.5462 25.064 25.0662 25.346 24.5622 25.586C24.0702 25.814 23.5422 25.988 22.9782 26.108C22.4142 26.228 21.7902 26.288 21.1062 26.288C20.3862 26.288 19.7082 26.192 19.0722 26C18.4482 25.796 17.9022 25.49 17.4342 25.082C16.9662 24.674 16.5942 24.164 16.3182 23.552C16.0542 22.94 15.9222 22.226 15.9222 21.41C15.9222 20.69 16.1142 20 16.4982 19.34C16.8942 18.668 17.5302 18.068 18.4062 17.54C19.2942 17.012 20.4462 16.58 21.8622 16.244C23.2902 15.908 25.0422 15.716 27.1182 15.668V14.336C27.1182 12.956 26.8242 11.924 26.2362 11.24C25.6482 10.556 24.7842 10.214 23.6442 10.214C22.8762 10.214 22.2282 10.31 21.7002 10.502C21.1842 10.694 20.7342 10.91 20.3502 11.15C19.9782 11.378 19.6482 11.588 19.3602 11.78C19.0842 11.972 18.7962 12.068 18.4962 12.068C18.2562 12.068 18.0462 12.002 17.8662 11.87C17.6982 11.738 17.5602 11.582 17.4522 11.402L16.8222 10.268ZM38.5671 11.222C39.1551 10.022 39.8631 9.08 40.6911 8.396C41.5191 7.712 42.5151 7.37 43.6791 7.37C44.0751 7.37 44.4471 7.418 44.7951 7.514C45.1551 7.598 45.4671 7.73 45.7311 7.91L45.4971 10.556C45.4131 10.88 45.2151 11.042 44.9031 11.042C44.7351 11.042 44.4831 11.012 44.1471 10.952C43.8111 10.88 43.4511 10.844 43.0671 10.844C42.5031 10.844 42.0051 10.928 41.5731 11.096C41.1411 11.252 40.7511 11.492 40.4031 11.816C40.0671 12.128 39.7671 12.518 39.5031 12.986C39.2391 13.442 38.9931 13.964 38.7651 14.552V26H35.2551V7.712H37.2711C37.6551 7.712 37.9131 7.784 38.0451 7.928C38.1891 8.06 38.2911 8.3 38.3511 8.648L38.5671 11.222ZM48.4387 26V7.712H50.5447C51.0367 7.712 51.3427 7.946 51.4627 8.414L51.7147 10.16C52.3867 9.356 53.1307 8.702 53.9467 8.198C54.7747 7.682 55.7407 7.424 56.8447 7.424C58.0567 7.424 59.0407 7.76 59.7967 8.432C60.5527 9.092 61.1047 9.992 61.4527 11.132C61.7167 10.484 62.0587 9.926 62.4787 9.458C62.8987 8.99 63.3667 8.606 63.8827 8.306C64.3987 8.006 64.9447 7.784 65.5207 7.64C66.1087 7.496 66.7027 7.424 67.3027 7.424C68.2747 7.424 69.1387 7.58 69.8947 7.892C70.6627 8.192 71.3107 8.636 71.8387 9.224C72.3667 9.812 72.7687 10.538 73.0447 11.402C73.3207 12.266 73.4587 13.25 73.4587 14.354V26H69.9307V14.354C69.9307 12.986 69.6307 11.954 69.0307 11.258C68.4427 10.562 67.5787 10.214 66.4387 10.214C65.9347 10.214 65.4547 10.304 64.9987 10.484C64.5427 10.652 64.1407 10.91 63.7927 11.258C63.4567 11.606 63.1867 12.038 62.9827 12.554C62.7907 13.07 62.6947 13.67 62.6947 14.354V26H59.1667V14.354C59.1667 12.938 58.8847 11.894 58.3207 11.222C57.7567 10.55 56.9287 10.214 55.8367 10.214C55.0807 10.214 54.3787 10.412 53.7307 10.808C53.0827 11.204 52.4887 11.744 51.9487 12.428V26H48.4387ZM97.8222 0.151998L87.3102 26H83.8722L73.3602 0.151998H76.4202C76.7562 0.151998 77.0262 0.235998 77.2302 0.403999C77.4462 0.571998 77.6082 0.787998 77.7162 1.052L84.7002 18.62C84.8682 19.052 85.0302 19.526 85.1862 20.042C85.3542 20.558 85.5042 21.098 85.6362 21.662C85.7562 21.098 85.8882 20.558 86.0322 20.042C86.1762 19.526 86.3322 19.052 86.5002 18.62L93.4662 1.052C93.5502 0.812 93.7002 0.601999 93.9162 0.421998C94.1442 0.241998 94.4202 0.151998 94.7442 0.151998H97.8222ZM109.701 14.822C109.701 14.126 109.599 13.484 109.395 12.896C109.203 12.308 108.915 11.798 108.531 11.366C108.147 10.934 107.679 10.598 107.127 10.358C106.575 10.118 105.939 9.998 105.219 9.998C103.743 9.998 102.579 10.424 101.727 11.276C100.887 12.128 100.353 13.31 100.125 14.822H109.701ZM112.599 23.39C112.167 23.894 111.669 24.332 111.105 24.704C110.541 25.064 109.941 25.358 109.305 25.586C108.669 25.814 108.009 25.982 107.325 26.09C106.653 26.198 105.987 26.252 105.327 26.252C104.067 26.252 102.897 26.042 101.817 25.622C100.749 25.19 99.8191 24.566 99.0271 23.75C98.2471 22.922 97.6351 21.902 97.1911 20.69C96.7591 19.466 96.5431 18.062 96.5431 16.478C96.5431 15.206 96.7411 14.024 97.1371 12.932C97.5331 11.828 98.0971 10.868 98.8291 10.052C99.5731 9.236 100.479 8.594 101.547 8.126C102.615 7.658 103.815 7.424 105.147 7.424C106.263 7.424 107.289 7.61 108.225 7.982C109.173 8.342 109.989 8.87 110.673 9.566C111.357 10.262 111.891 11.12 112.275 12.14C112.671 13.16 112.869 14.324 112.869 15.632C112.869 16.172 112.809 16.538 112.689 16.73C112.569 16.91 112.347 17 112.023 17H100.035C100.071 18.092 100.227 19.046 100.503 19.862C100.779 20.666 101.157 21.338 101.637 21.878C102.129 22.418 102.711 22.82 103.383 23.084C104.055 23.348 104.805 23.48 105.633 23.48C106.413 23.48 107.085 23.39 107.649 23.21C108.225 23.03 108.717 22.838 109.125 22.634C109.545 22.418 109.893 22.22 110.169 22.04C110.457 21.86 110.709 21.77 110.925 21.77C111.213 21.77 111.435 21.878 111.591 22.094L112.599 23.39ZM127.424 10.862C127.328 11.018 127.226 11.132 127.118 11.204C127.01 11.264 126.872 11.294 126.704 11.294C126.512 11.294 126.296 11.228 126.056 11.096C125.828 10.964 125.546 10.82 125.21 10.664C124.886 10.508 124.502 10.364 124.058 10.232C123.614 10.1 123.086 10.034 122.474 10.034C121.97 10.034 121.508 10.1 121.088 10.232C120.68 10.352 120.332 10.526 120.044 10.754C119.756 10.97 119.534 11.234 119.378 11.546C119.222 11.846 119.144 12.17 119.144 12.518C119.144 12.974 119.276 13.352 119.54 13.652C119.816 13.952 120.17 14.21 120.602 14.426C121.046 14.642 121.544 14.84 122.096 15.02C122.66 15.188 123.23 15.368 123.806 15.56C124.394 15.752 124.964 15.974 125.516 16.226C126.08 16.466 126.578 16.772 127.01 17.144C127.454 17.504 127.808 17.942 128.072 18.458C128.348 18.974 128.486 19.604 128.486 20.348C128.486 21.2 128.33 21.992 128.018 22.724C127.718 23.444 127.268 24.068 126.668 24.596C126.08 25.124 125.348 25.538 124.472 25.838C123.596 26.138 122.594 26.288 121.466 26.288C120.206 26.288 119.042 26.078 117.974 25.658C116.906 25.238 116.012 24.704 115.292 24.056L116.12 22.706C116.216 22.538 116.336 22.412 116.48 22.328C116.624 22.232 116.816 22.184 117.056 22.184C117.284 22.184 117.518 22.268 117.758 22.436C117.998 22.604 118.286 22.79 118.622 22.994C118.958 23.186 119.366 23.366 119.846 23.534C120.326 23.69 120.926 23.768 121.646 23.768C122.246 23.768 122.768 23.696 123.212 23.552C123.656 23.396 124.022 23.192 124.31 22.94C124.61 22.676 124.832 22.376 124.976 22.04C125.12 21.704 125.192 21.35 125.192 20.978C125.192 20.498 125.054 20.102 124.778 19.79C124.514 19.466 124.16 19.19 123.716 18.962C123.284 18.734 122.786 18.536 122.222 18.368C121.658 18.2 121.082 18.02 120.494 17.828C119.906 17.636 119.33 17.414 118.766 17.162C118.202 16.91 117.698 16.592 117.254 16.208C116.822 15.824 116.468 15.356 116.192 14.804C115.928 14.252 115.796 13.58 115.796 12.788C115.796 12.08 115.94 11.402 116.228 10.754C116.528 10.106 116.954 9.536 117.506 9.044C118.07 8.552 118.76 8.162 119.576 7.874C120.404 7.574 121.346 7.424 122.402 7.424C123.614 7.424 124.706 7.616 125.678 8C126.662 8.384 127.502 8.912 128.198 9.584L127.424 10.862ZM138.01 26.288C136.534 26.288 135.394 25.874 134.59 25.046C133.798 24.218 133.402 23.036 133.402 21.5V10.556H131.278C131.074 10.556 130.9 10.496 130.756 10.376C130.624 10.244 130.558 10.052 130.558 9.8V8.378L133.528 7.964L134.32 2.51C134.368 2.306 134.458 2.15 134.59 2.042C134.734 1.922 134.914 1.862 135.13 1.862H136.912V8H142.096V10.556H136.912V21.266C136.912 21.986 137.086 22.526 137.434 22.886C137.794 23.234 138.25 23.408 138.802 23.408C139.126 23.408 139.402 23.366 139.63 23.282C139.87 23.198 140.074 23.108 140.242 23.012C140.41 22.904 140.554 22.808 140.674 22.724C140.794 22.64 140.902 22.598 140.998 22.598C141.118 22.598 141.208 22.628 141.268 22.688C141.34 22.736 141.412 22.82 141.484 22.94L142.528 24.632C141.952 25.16 141.268 25.568 140.476 25.856C139.684 26.144 138.862 26.288 138.01 26.288Z" fill="white"/>
</svg>

<svg width="143" height="27" fill="none" xmlns="http://www.w3.org/2000/svg"><path d="M4.038 3.266v8.658h10.368v3.114H4.038V26H.186V.152h16.02v3.114H4.038zm23.08 14.616c-1.428.048-2.64.162-3.636.342-.996.168-1.806.396-2.43.684-.624.288-1.074.63-1.35 1.026a2.167 2.167 0 00-.414 1.296c0 .456.072.852.216 1.188.156.324.36.594.612.81.264.204.57.354.918.45.348.096.726.144 1.134.144a6.248 6.248 0 002.754-.612c.396-.204.774-.45 1.134-.738.36-.288.714-.618 1.062-.99v-3.6zm-10.296-7.614c1.02-.972 2.124-1.698 3.312-2.178 1.2-.48 2.514-.72 3.942-.72 1.044 0 1.968.174 2.772.522.804.336 1.482.81 2.034 1.422a5.984 5.984 0 011.242 2.196c.288.852.432 1.794.432 2.826V26H28.99c-.348 0-.612-.054-.792-.162-.18-.12-.324-.336-.432-.648l-.378-1.602c-.468.432-.93.816-1.386 1.152a9.63 9.63 0 01-1.44.846 7.433 7.433 0 01-1.584.522c-.564.12-1.188.18-1.872.18-.72 0-1.398-.096-2.034-.288a4.67 4.67 0 01-1.638-.918 4.392 4.392 0 01-1.116-1.53c-.264-.612-.396-1.326-.396-2.142 0-.72.192-1.41.576-2.07.396-.672 1.032-1.272 1.908-1.8.888-.528 2.04-.96 3.456-1.296 1.428-.336 3.18-.528 5.256-.576v-1.332c0-1.38-.294-2.412-.882-3.096-.588-.684-1.452-1.026-2.592-1.026-.768 0-1.416.096-1.944.288a7.446 7.446 0 00-1.35.648 31.07 31.07 0 00-.99.63 1.491 1.491 0 01-.864.288c-.24 0-.45-.066-.63-.198a1.71 1.71 0 01-.414-.468l-.63-1.134zm21.745.954c.588-1.2 1.296-2.142 2.124-2.826.828-.684 1.824-1.026 2.988-1.026.396 0 .768.048 1.116.144.36.084.672.216.936.396l-.234 2.646c-.084.324-.282.486-.594.486-.168 0-.42-.03-.756-.09a5.149 5.149 0 00-1.08-.108c-.564 0-1.062.084-1.494.252a3.397 3.397 0 00-1.17.72 4.793 4.793 0 00-.9 1.17c-.264.456-.51.978-.738 1.566V26h-3.51V7.712h2.016c.384 0 .642.072.774.216.144.132.246.372.306.72l.216 2.574zM48.44 26V7.712h2.106c.492 0 .798.234.918.702l.252 1.746a9.243 9.243 0 012.232-1.962c.828-.516 1.794-.774 2.898-.774 1.212 0 2.196.336 2.952 1.008.756.66 1.308 1.56 1.656 2.7a5.697 5.697 0 012.43-2.826 6.268 6.268 0 011.638-.666 7.465 7.465 0 011.782-.216c.972 0 1.836.156 2.592.468.768.3 1.416.744 1.944 1.332.528.588.93 1.314 1.206 2.178.276.864.414 1.848.414 2.952V26h-3.53V14.354c0-1.368-.3-2.4-.9-3.096-.588-.696-1.452-1.044-2.592-1.044-.504 0-.984.09-1.44.27a3.302 3.302 0 00-1.206.774c-.336.348-.606.78-.81 1.296-.192.516-.288 1.116-.288 1.8V26h-3.528V14.354c0-1.416-.282-2.46-.846-3.132-.564-.672-1.392-1.008-2.484-1.008-.756 0-1.458.198-2.106.594-.648.396-1.242.936-1.782 1.62V26h-3.51zM97.822.152L87.31 26h-3.438L73.36.152h3.06c.336 0 .606.084.81.252.216.168.378.384.486.648L84.7 18.62c.168.432.33.906.486 1.422.168.516.318 1.056.45 1.62.12-.564.252-1.104.396-1.62.144-.516.3-.99.468-1.422l6.966-17.568c.084-.24.234-.45.45-.63.228-.18.504-.27.828-.27h3.078zm11.879 14.67a5.84 5.84 0 00-.306-1.926 4.264 4.264 0 00-.864-1.53 3.968 3.968 0 00-1.404-1.008c-.552-.24-1.188-.36-1.908-.36-1.476 0-2.64.426-3.492 1.278-.84.852-1.374 2.034-1.602 3.546h9.576zm2.898 8.568c-.432.504-.93.942-1.494 1.314a8.944 8.944 0 01-1.8.882c-.636.228-1.296.396-1.98.504-.672.108-1.338.162-1.998.162-1.26 0-2.43-.21-3.51-.63a8.05 8.05 0 01-2.79-1.872c-.78-.828-1.392-1.848-1.836-3.06-.432-1.224-.648-2.628-.648-4.212 0-1.272.198-2.454.594-3.546a8.617 8.617 0 011.692-2.88 7.935 7.935 0 012.718-1.926c1.068-.468 2.268-.702 3.6-.702 1.116 0 2.142.186 3.078.558a6.74 6.74 0 012.448 1.584c.684.696 1.218 1.554 1.602 2.574.396 1.02.594 2.184.594 3.492 0 .54-.06.906-.18 1.098-.12.18-.342.27-.666.27h-11.988c.036 1.092.192 2.046.468 2.862.276.804.654 1.476 1.134 2.016.492.54 1.074.942 1.746 1.206.672.264 1.422.396 2.25.396.78 0 1.452-.09 2.016-.27a9.996 9.996 0 001.476-.576c.42-.216.768-.414 1.044-.594.288-.18.54-.27.756-.27.288 0 .51.108.666.324l1.008 1.296zm14.825-12.528c-.096.156-.198.27-.306.342a.846.846 0 01-.414.09c-.192 0-.408-.066-.648-.198a10.77 10.77 0 00-.846-.432 7.79 7.79 0 00-1.152-.432c-.444-.132-.972-.198-1.584-.198-.504 0-.966.066-1.386.198-.408.12-.756.294-1.044.522-.288.216-.51.48-.666.792-.156.3-.234.624-.234.972 0 .456.132.834.396 1.134.276.3.63.558 1.062.774.444.216.942.414 1.494.594.564.168 1.134.348 1.71.54.588.192 1.158.414 1.71.666.564.24 1.062.546 1.494.918.444.36.798.798 1.062 1.314.276.516.414 1.146.414 1.89 0 .852-.156 1.644-.468 2.376a5.06 5.06 0 01-1.35 1.872c-.588.528-1.32.942-2.196 1.242-.876.3-1.878.45-3.006.45-1.26 0-2.424-.21-3.492-.63-1.068-.42-1.962-.954-2.682-1.602l.828-1.35a.996.996 0 01.36-.378c.144-.096.336-.144.576-.144.228 0 .462.084.702.252.24.168.528.354.864.558a7.43 7.43 0 001.224.54c.48.156 1.08.234 1.8.234.6 0 1.122-.072 1.566-.216.444-.156.81-.36 1.098-.612.3-.264.522-.564.666-.9.144-.336.216-.69.216-1.062 0-.48-.138-.876-.414-1.188-.264-.324-.618-.6-1.062-.828a8.245 8.245 0 00-1.494-.594 69.364 69.364 0 01-1.728-.54 17.704 17.704 0 01-1.728-.666 6.097 6.097 0 01-1.512-.954 4.617 4.617 0 01-1.062-1.404c-.264-.552-.396-1.224-.396-2.016 0-.708.144-1.386.432-2.034a5.2 5.2 0 011.278-1.71c.564-.492 1.254-.882 2.07-1.17.828-.3 1.77-.45 2.826-.45 1.212 0 2.304.192 3.276.576.984.384 1.824.912 2.52 1.584l-.774 1.278zm10.586 15.426c-1.476 0-2.616-.414-3.42-1.242-.792-.828-1.188-2.01-1.188-3.546V10.556h-2.124a.789.789 0 01-.522-.18c-.132-.132-.198-.324-.198-.576V8.378l2.97-.414.792-5.454a.826.826 0 01.27-.468.815.815 0 01.54-.18h1.782V8h5.184v2.556h-5.184v10.71c0 .72.174 1.26.522 1.62.36.348.816.522 1.368.522.324 0 .6-.042.828-.126.24-.084.444-.174.612-.27.168-.108.312-.204.432-.288a.585.585 0 01.324-.126c.12 0 .21.03.27.09a.78.78 0 01.216.252l1.044 1.692a6.065 6.065 0 01-2.052 1.224 7.16 7.16 0 01-2.466.432z" fill="#fff"/></svg>.649 23.21C108.225 23.03 108.717 22.838 109.125 22.634C109.545 22.418 109.893 22.22 110.169 22.04C110.457 21.86 110.709 21.77 110.925 21.77C111.213 21.77 111.435 21.878 111.591 22.094L112.599 23.39ZM127.424 10.862C127.328 11.018 127.226 11.132 127.118 11.204C127.01 11.264 126.872 11.294 126.704 11.294C126.512 11.294 126.296 11.228 126.056 11.096C125.828 10.964 125.546 10.82 125.21 10.664C124.886 10.508 124.502 10.364 124.058 10.232C123.614 10.1 123.086 10.034 122.474 10.034C121.97 10.034 121.508 10.1 121.088 10.232C120.68 10.352 120.332 10.526 120.044 10.754C119.756 10.97 119.534 11.234 119.378 11.546C119.222 11.846 119.144 12.17 119.144 12.518C119.144 12.974 119.276 13.352 119.54 13.652C119.816 13.952 120.17 14.21 120.602 14.426C121.046 14.642 121.544 14.84 122.096 15.02C122.66 15.188 123.23 15.368 123.806 15.56C124.394 15.752 124.964 15.974 125.516 16.226C126.08 16.466 126.578 16.772 127.01 17.144C127.454 17.504 127.808 17.942 128.072 18.458C128.348 18.974 128.486 19.604 128.486 20.348C128.486 21.2 128.33 21.992 128.018 22.724C127.718 23.444 127.268 24.068 126.668 24.596C126.08 25.124 125.348 25.538 124.472 25.838C123.596 26.138 122.594 26.288 121.466 26.288C120.206 26.288 119.042 26.078 117.974 25.658C116.906 25.238 116.012 24.704 115.292 24.056L116.12 22.706C116.216 22.538 116.336 22.412 116.48 22.328C116.624 22.232 116.816 22.184 117.056 22.184C117.284 22.184 117.518 22.268 117.758 22.436C117.998 22.604 118.286 22.79 118.622 22.994C118.958 23.186 119.366 23.366 119.846 23.534C120.326 23.69 120.926 23.768 121.646 23.768C122.246 23.768 122.768 23.696 123.212 23.552C123.656 23.396 124.022 23.192 124.31 22.94C124.61 22.676 124.832 22.376 124.976 22.04C125.12 21.704 125.192 21.35 125.192 20.978C125.192 20.498 125.054 20.102 124.778 19.79C124.514 19.466 124.16 19.19 123.716 18.962C123.284 18.734 122.786 18.536 122.222 18.368C121.658 18.2 121.082 18.02 120.494 17.828C119.906 17.636 119.33 17.414 118.766 17.162C118.202 16.91 117.698 16.592 117.254 16.208C116.822 15.824 116.468 15.356 116.192 14.804C115.928 14.252 115.796 13.58 115.796 12.788C115.796 12.08 115.94 11.402 116.228 10.754C116.528 10.106 116.954 9.536 117.506 9.044C118.07 8.552 118.76 8.162 119.576 7.874C120.404 7.574 121.346 7.424 122.402 7.424C123.614 7.424 124.706 7.616 125.678 8C126.662 8.384 127.502 8.912 128.198 9.584L127.424 10.862ZM138.01 26.288C136.534 26.288 135.394 25.874 134.59 25.046C133.798 24.218 133.402 23.036 133.402 21.5V10.556H131.278C131.074 10.556 130.9 10.496 130.756 10.376C130.624 10.244 130.558 10.052 130.558 9.8V8.378L133.528 7.964L134.32 2.51C134.368 2.306 134.458 2.15 134.59 2.042C134.734 1.922 134.914 1.862 135.13 1.862H136.912V8H142.096V10.556H136.912V21.266C136.912 21.986 137.086 22.526 137.434 22.886C137.794 23.234 138.25 23.408 138.802 23.408C139.126 23.408 139.402 23.366 139.63 23.282C139.87 23.198 140.074 23.108 140.242 23.012C140.41 22.904 140.554 22.808 140.674 22.724C140.794 22.64 140.902 22.598 140.998 22.598C141.118 22.598 141.208 22.628 141.268 22.688C141.34 22.736 141.412 22.82 141.484 22.94L142.528 24.632C141.952 25.16 141.268 25.568 140.476 25.856C139.684 26.144 138.862 26.288 138.01 26.288Z" fill="white"/>
</svg>
